X:450
T:Reel 450
M:4/4
K:Amaj
L:1/8
CD|EA,CA, B,A,G,E,|E,A,CA, B,E,G,B,|EDCA, B,G,E,G,|A,CB,G, A,2CD|EB,CA, B,G,E,D,|E,A,CE DB,G,B,|CDCB, A,G,F,E,|EDB,C A,2|E2|A2GA B2cB|AcBA GEEG|G2BG c2BG|EAGB AFED|C2cA B2BG|A2BA GEEA|cABG AGEF|GEDB, A,2|
